!!!COM: Dunstable, John
!!!CDT: ~1390///-1453/12/24/
!!!OTL: Hymn "Veni Creator" for Whitsunday  
!!!ONB1: Veni Sancte Spiritus et emitte /
!!!ONB2: Veni Sancte Spiritus et infunde /
!!!ONB3: Veni Creator Spiritus /
!!!ONB4: Mentes tuorum
!!!ONB: 4 voices
!!!AIN: isorhythmic motet
**kern	**kern	**kern	**kern
!tenor	!contratenor	!motetus	!triplum
*staff4	*staff3	*staff2	*staff1
*Ivox	*Ivox	*Ivox	*Ivox
*clefF4	*clefGv2	*clefGv2	*clefG2
*k[f#]	*k[f#]	*k[f#]	*k[f#]
*M3/2	*M3/2	*M3/2	*M3/2
*MM120	*MM120	*MM120	*MM120
=1-	=1-	=1-	=1-
2r	2r	2d\	1d
2r	2r	4B\	.
.	.	4G/	.
2r	2r	2c\	2e/
=2	=2	=2	=2
2r	2.r	4d\	1d
.	.	8B/L	.
.	.	8G/J	.
2r	.	8B/L	.
.	.	8A/J	.
.	2.r	8F#/L	.
.	.	8G/J	.
2r	.	4.E/	2c#/
.	.	8D/	.
=3	=3	=3	=3
2r	2.r	4D/	4d/
.	.	4r	2e/
2r	.	4c\	.
.	2.r	4.d\	4d/
2r	.	.	4r
.	.	8B\	.
.	.	12B\L	4g/
.	.	12c\	.
.	.	12B\J	.
=4	=4	=4	=4
1.r	2.r	4G/	4g/
.	.	2F#/	2a/
.	2.r	4G/	2g/
.	.	4B\	.
.	.	4A/	8f#/L
.	.	.	8e/J
=5	=5	=5	=5
2.r	2.r	2.G/	2.g/
[2.G\	2G/	2B\	4r
.	.	.	4r
.	4G/	4B\	4e/
=6	=6	=6	=6
2.G\_	2C/	[2.c\	2e/
.	4C/	.	4e/
2.G\]	2C/	2.c\]	2e/
.	4C/	.	8g/L
.	.	.	8f#/J
=7	=7	=7	=7
[1.G	2.r	2.B\	2d/
.	.	.	4g/
.	2C/	2.r	4g/
.	.	.	8a/L
.	.	.	8g/J
.	4C/	.	8f#/L
.	.	.	16g/L
.	.	.	16e/JJ
=8	=8	=8	=8
2.G\]	2B\	2.r	4d/
.	.	.	4r
.	4B\	.	4e/
[2.D\	2.A/	[2.d\	4.f#/
.	.	.	8g/
.	.	.	4a/
=9	=9	=9	=9
2.D\]	2A/	2d\]	4a/
.	.	.	8f#/L
.	.	.	8d/J
.	4A/	4d\	8f#/L
.	.	.	8g/J
2.E\	4r	2.B\	8e/
.	.	.	2g/
.	4r	.	.
.	4G/	.	.
.	.	.	8f#/
=10	=10	=10	=10
2.G\	4G/	4r	4d/
.	2E/	4r	8e/
.	.	.	4g/
.	.	4B\	.
.	.	.	8e/
[2.A\	2D/	[2.d\	8f#/L
.	.	.	8g/J
.	.	.	8.a/L
.	.	.	16g/Jk
.	4D/	.	8a/L
.	.	.	8f#/J
=11	=11	=11	=11
2.A\]	4D/	4d\]	8d/L
.	.	.	8.f#/
.	4r	2c#\	.
.	.	.	16g/Jk
.	.	.	8a/L
.	4A/	.	8f#/
.	.	.	8e/J
[2.G\	2B\	[2.d\	4g/
.	.	.	4r
.	4B\	.	4g/
=12	=12	=12	=12
2.G\_	4r	2d\]	4a/
.	4r	.	4g/
.	4B\	4B\	8e/L
.	.	.	8d/J
2.G\_	2B\	4r	2d/
.	.	4r	.
.	4d\	4B\	4d/
=13	=13	=13	=13
1.G_	4e\	2d\	4r
.	4d\	.	4r
.	8c\L	4G/	4g/
.	8B\J	.	.
.	2B\	8B\L	4g/
.	.	8c\J	.
.	.	4d\	8a/
.	.	.	4b\
.	4G/	8B\L	.
.	.	[8e\J	8a/
=14	=14	=14	=14
2.G\]	4r	8e\L]	4g/
.	.	8B\J	.
.	4r	8c#\L	4e/
.	.	16c#\L	.
.	.	16d\JJ	.
.	4E/	8c#\L	8e/L
.	.	8B\J	8d/J
[2.A\	2D/	[2.d\	2.f#/
.	[4D/	.	.
=15	=15	=15	=15
2.A\_	4D/]	2.d\]	4r
.	2D/	.	4r
.	.	.	4f#/
2.A\_	2.r	[2.c#\	[2.e/
=16	=16	=16	=16
1.A_	2.r	2.c#\]	2e/]
.	.	.	4a/
.	2D/	2.r	4.a/
.	.	.	16g/LL
.	.	.	16a/JJ
.	4D/	.	8b/L
.	.	.	8a/J
=17	=17	=17	=17
2.A\]	2D/	2.d\	4f#/
.	.	.	8e/L
.	.	.	8e/J
.	4D/	.	8f#/L
.	.	.	8d/J
2.r	2G/	2.r	4d/
.	.	.	8e/
.	.	.	4g/
.	4G/	.	.
.	.	.	8e/
=18	=18	=18	=18
1.r	2D/	2.r	8f#/L
.	.	.	8g/J
.	.	.	4a/
.	4E/	.	8g/L
.	.	.	[8e/J
.	8G/L	2.r	16e/LL]
.	.	.	16d/JJ
.	16F#/L	.	4f#/
.	16G/JJ	.	.
.	8A/L	.	.
.	8G/J	.	8e/
.	4F#/	.	8c#/L
.	.	.	8d#/J
=19	=19	=19	=19
[1.B	[2.E/	4r	2.e/
.	.	4r	.
.	.	4e\	.
.	2.E/]	2.e\	4r
.	.	.	4r
.	.	.	4b\
=20	=20	=20	=20
2.B\]	4r	2d\	4b\
.	4r	.	4a/
.	4G/	8B\L	8g/L
.	.	8c\J	8f#/J
[2.A\	2D/	[2.d\	2f#/
.	4D/	.	4f#/
=21	=21	=21	=21
2.A\_	2D/	2.d\]	4r
.	.	.	4.a/
.	4D/	.	.
.	.	.	8g/
2.A\]	2.r	4e\	4g/
.	.	2c#\	4.f#/
.	.	.	8e/
=22	=22	=22	=22
[1.G	2d\	4r	[2.g/
.	.	4r	.
.	4d\	4d\	.
.	[2.B\	[2.d\	2.g/]
=23	=23	=23	=23
2.G\]	2B\]	2.d\]	2.r
.	4G/	.	.
2.r	2.r	2e\	[2.g/
.	.	4cn\	.
=24	=24	=24	=24
1.r	2.r	4B\	4g/]
.	.	2d\	2d/
.	2.r	4c\	[2.e/
.	.	8A/L	.
.	.	8G/J	.
.	.	8c\L	.
.	.	8d\J	.
=25	=25	=25	=25
1.r	2.r	4.e\	4e/]
.	.	.	2g/
.	.	8d\	.
.	.	4B\	.
.	2.r	4A/	4a/
.	.	2B\	2g#/
=26	=26	=26	=26
1.r	2.r	4.A/	4a/
.	.	.	4r
.	.	8F#/	.
.	.	12F#/L	4a/
.	.	12G/	.
.	.	12F#/J	.
.	2.r	4D/	4a/
.	.	4r	2b\
.	.	4d\	.
=27	=27	=27	=27
1.r	2.r	4c\	2a/
.	.	2B\	.
.	.	.	8g#/L
.	.	.	8f#/J
.	2.r	2.A/	2.a/
=28	=28	=28	=28
[1.A	2A/	2c#\	4r
.	.	.	4r
.	4A/	4c#\	4f#/
.	2D/	[2.d\	2f#/
.	4D/	.	4f#/
=29	=29	=29	=29
2.A\]	2D/	2.d\]	2f#/
.	4D/	.	4a/
[2.G\	2.r	2.d\	2b\
.	.	.	4a/
=30	=30	=30	=30
2.G\_	2C/	2.r	[4g/
.	.	.	8g/L]
.	.	.	8e/J
.	4C/	.	8e/L
.	.	.	16g/L
.	.	.	16f#/JJ
2.G\]	2B\	2.r	4d/
.	.	.	4r
.	4G/	.	4g/
=31	=31	=31	=31
1.A	2D/	[2.d\	4.f#/
.	.	.	8g/
.	4D/	.	4a/
.	2D/	2d\]	4a/
.	.	.	8f#/
.	.	.	8f#/
.	4D/	4d\	8g/L
.	.	.	8f#/J
=32	=32	=32	=32
2.B\	4r	2.G/	8d/
.	.	.	2g/
.	4r	.	.
.	4G/	.	.
.	.	.	8f#/
2.G\	4G/	4r	4e/
.	2B\	4r	8d/
.	.	.	4B/
.	.	4G/	.
.	.	.	8e/
=33	=33	=33	=33
1.F#	2A/	1D	8d/L
.	.	.	8e/J
.	.	.	8.f#/L
.	.	.	16g/Jk
.	4A/	.	8a/L
.	.	.	8a/J
.	4A/	.	8g/L
.	.	.	8.f#/
.	4r	2A/	.
.	.	.	16e/Jk
.	.	.	8f#/L
.	4A/	.	8c#/
.	.	.	8d#/J
=34	=34	=34	=34
[1.E	2G#/	[2.B\	4e/
.	.	.	4r
.	4G#/	.	4e/
.	4r	2B\]	4e/
.	4r	.	4d/
.	4e\	4G/	8c/L
.	.	.	8B/J
=35	=35	=35	=35
2.E\_	2e\	4r	2B/
.	.	4r	.
.	4e\	4e\	4B/
2.E\_	4c\	4e\	4r
.	4B\	4d\	4r
.	8B/L	8c\L	4e/
.	8G/J	8B\J	.
=36	=36	=36	=36
2.E\_	2G/	8B\L	4e/
.	.	8c\J	.
.	.	4e\	8f#/
.	.	.	4g/
.	4E/	8d\L	.
.	.	[8B\J	8a/
2.E\]	4r	8B\L]	4b\
.	.	8d\J	.
.	4r	8e\L	4g/
.	.	16d\L	.
.	.	16e\JJ	.
.	4G/	8c#\L	8g/L
.	.	8B\J	8f#/J
=37	=37	=37	=37
[1.D	2F#/	[2.d\	2.a/
.	2A/	.	.
.	.	2.d\]	4r
.	2B\	.	4r
.	.	.	4f#/
=38	=38	=38	=38
2.D\_	2.r	[2.A/	[2.f#/
2.D\_	2.r	2.A/]	2f#/]
.	.	.	4a/
=39	=39	=39	=39
2.D\_	2d\	2.r	4.a/
.	.	.	16g/LL
.	.	.	16a/JJ
.	4d\	.	8b/L
.	.	.	8a/J
2.D\]	2d\	2.A/	4f#/
.	.	.	8d/
.	.	.	8d/
.	4d\	.	8f#/L
.	.	.	8g/J
=40	=40	=40	=40
1.r	2c#\	2.r	4e/
.	.	.	8f#/
.	.	.	4a/
.	4c#\	.	.
.	.	.	8g/
.	2d\	2.r	8f#/L
.	.	.	8d/J
.	.	.	4f#/
.	4c#\	.	8e/L
.	.	.	[8g/J
=41	=41	=41	=41
2.r	8B/L	2.r	16g/LL]
.	.	.	16f#/JJ
.	16A/L	.	4a/
.	16B/JJ	.	.
.	8c/L	.	.
.	8G/J	.	8g/
.	4A/	.	8e/L
.	.	.	8f#/J
[2.G\	[2.d\	4r	2.g/
.	.	4r	.
.	.	4B\	.
=42	=42	=42	=42
2.G\_	2d\]	2B\	4r
.	.	.	4r
.	4B\	4d\	4b\
2.G\]	4r	8d\	4b\
.	.	4e\	.
.	4r	.	4a/
.	.	8d\L	.
.	4E/	8B\	8g/L
.	.	8c#\J	8f#/J
=43	=43	=43	=43
[1.A	2D/	[2.d\	2f#/
.	4D/	.	4d/
.	2D/	2.d\]	4r
.	.	.	4.a/
.	4D/	.	.
.	.	.	8f#/
=44	=44	=44	=44
2.A\]	2.r	4A/	4f#/
.	.	2c#\	4.e/
.	.	.	8d/
[2.D\	2d\	4r	[2.f#/
.	.	4r	.
.	4d\	4d\	.
=45	=45	=45	=45
2.D\_	[2.A/	[2.d\	2.f#/]
2.D\]	2A/]	2.d\]	2.r
.	4A/	.	.
=46	=46	=46	=46
2r	2r	2B\	2g/
2r	2r	4cn\	4a/
.	.	4B\	2b\
2r	2r	2G/	.
.	.	.	4g/
=47	=47	=47	=47
2r	2r	4.d\	4f#/
.	.	.	2e/
.	.	8c\	.
2r	2r	4c\	.
.	.	4d\	4d/
2r	2r	4B\	4g/
.	.	4c\	[4a/
=48	=48	=48	=48
2r	2r	2d\	4a/]
.	.	.	4d/
2r	2r	4c\	4e/
.	.	4B\	4.g/
2r	2r	2A/	.
.	.	.	8f#/L
.	.	.	8f#/
.	.	.	8e/J
=49	=49	=49	=49
1.G	2G/	2G/	2g/
.	4E/	2B\	2r
.	4E/	.	.
.	4G/	2r	2d/
.	4G/	.	.
=50	=50	=50	=50
1.G	4C/	1c	4e/
.	4C/	.	2g/
.	2C/	.	.
.	.	.	4e/
.	4r	4B\	4g/
.	4G/	4c\	4a/
=51	=51	=51	=51
1D	2A/	1d	4.f#/
.	.	.	8g/
.	2A/	.	4a/
.	.	.	4a/
2E\	4r	2B\	4g/
.	[4G/	.	4e/
=52	=52	=52	=52
2G\	4G/]	4r	4d/
.	4E/	4c\	2g/
1A	2D/	2d\	.
.	.	.	4f#/
.	2r	2c\	4f#/
.	.	.	8e/L
.	.	.	8f#/J
=53	=53	=53	=53
[1.G	2G/	2.d\	2g/
.	2B\	.	4r
.	.	4B\	4e/
.	4r	2d\	4d/
.	4B\	.	[4g/
=54	=54	=54	=54
1.G]	2G/	4r	4g/]
.	.	4B\	4.e/
.	4r	2B\	.
.	.	.	8d/
.	4G/	.	4.d/
.	2E/	2G/	.
.	.	.	8c#/
.	.	.	8c#/L
.	.	.	8B/J
=55	=55	=55	=55
[1.A	1D	4r	2d/
.	.	4d\	.
.	.	2d\	4r
.	.	.	4f#/
.	4r	4c\	4f#/
.	4D/	4A/	4g/
=56	=56	=56	=56
1.A]	2D/	4r	2a/
.	.	4d\	.
.	4r	2d\	4a/
.	4D/	.	4f#/
.	2A/	2c\	4r
.	.	.	4a/
=57	=57	=57	=57
2r	2B\	2r	4g/
.	.	.	4.f#/
2r	4A/	2r	.
.	.	.	8e/
.	4G/	.	4.e/
2r	2Fn/	2r	.
.	.	.	8d/
.	.	.	12d/L
.	.	.	12e/
.	.	.	12c/J
=58	=58	=58	=58
1.B	1E	4r	2e/
.	.	4B\	.
.	.	2e\	4r
.	.	.	4e/
.	4r	4d\	4g/
.	4G/	4B\	4f#/
=59	=59	=59	=59
1.A	2D/	4r	2a/
.	.	4d\	.
.	4r	2d\	2f#/
.	4D/	.	.
.	2D/	2A/	4r
.	.	.	4a/
=60	=60	=60	=60
1.G	1d	2r	2.b\
.	.	1B	.
.	.	.	4a/
.	2d\	.	4g/
.	.	.	4f#/
=61	=61	=61	=61
2r	2r	2A/	2f#/
2r	2r	2G/	4g/
.	.	.	2e/
2r	2r	4A/	.
.	.	[4F#/	4d/
=62	=62	=62	=62
2r	2r	4F#/]	4c#/
.	.	4E/	2e/
2r	2r	2G/	.
.	.	.	4e/
2r	2r	2A/	4f#/
.	.	.	[4e/
=63	=63	=63	=63
2r	2r	4G/	4e/]
.	.	4F#/	4d/
2r	2r	4A/	4c#/
.	.	4D/	4.d/
2r	2r	2E/	.
.	.	.	8c#/L
.	.	.	8c#/
.	.	.	8B/J
=64	=64	=64	=64
1.A	2D/	2D/	2d/
.	4D/	2A/	2r
.	4D/	.	.
.	4D/	2r	2f#/
.	4D/	.	.
=65	=65	=65	=65
1.G	4B\	1d	4g/
.	4B\	.	2b\
.	2B\	.	.
.	.	.	4a/
.	4r	4B\	4g/
.	4G/	4c\	4f#/
=66	=66	=66	=66
1A	2D/	1d	4.f#/
.	.	.	8g/
.	2D/	.	4a/
.	.	.	4a/
2B\	4r	2G/	4g/
.	[4G/	.	4e/
=67	=67	=67	=67
2G\	4G/]	4r	4e/
.	4G/	4B\	8d/L
.	.	.	8e/J
1F#	2D/	2d\	4f#/
.	.	.	4d/
.	2r	2A/	4d/
.	.	.	8c#/L
.	.	.	8d/J
=68	=68	=68	=68
[1.E	2E/	2.B\	2e/
.	2B\	.	4r
.	.	4G/	4g/
.	4r	2G/	4a/
.	4B\	.	[4b\
=69	=69	=69	=69
1.E]	2B\	4r	4b\]
.	.	4e\	4.g/
.	4r	4e\	.
.	.	.	8f#/
.	4G/	4B\	4.e/
.	2G/	4c#\	.
.	.	.	8d/
.	.	8B\L	4g/
.	.	8c#\J	.
=70	=70	=70	=70
[1.D	1A	4r	2f#/
.	.	4d\	.
.	.	2d\	4r
.	.	.	4d/
.	4r	4d\	4f#/
.	4d\	4A/	4g/
=71	=71	=71	=71
1.D]	2d\	4r	2a/
.	.	4A/	.
.	4r	2d\	4f#/
.	4A/	.	4d/
.	2B\	2d\	4r
.	.	.	4f#/
=72	=72	=72	=72
2r	2c\	2r	4e/
.	.	.	4.a/
2r	4B\	2r	.
.	.	.	8g/
.	4c\	.	4.g/
2r	2A/	2r	.
.	.	.	8f#/
.	.	.	12f#/L
.	.	.	12g/
.	.	.	12e/J
=73	=73	=73	=73
1.G	1G	4r	2g/
.	.	4G/	.
.	.	2B\	4r
.	.	.	4e/
.	4r	4B\	4d/
.	4E/	4c#\	4e/
=74	=74	=74	=74
1.A	2D/	4r	2f#/
.	.	4d\	.
.	4r	2d\	2a/
.	4D/	.	.
.	2c#\	2A/	4r
.	.	.	4f#/
=75	=75	=75	=75
1.D	1d	2r	2.a/
.	.	1A	.
.	.	.	4f#/
.	2d\	.	4f#/
.	.	.	4d/
=76	=76	=76	=76
*M3/4	*M3/4	*M3/4	*M3/4
2.r	2.r	2d\	2d/
.	.	4c\	4e/
=77	=77	=77	=77
2.r	2.r	4d\	4d/
.	.	8e\L	8c/
.	.	8d\J	4d/
.	.	8B\L	.
.	.	8c\J	8e/
=78	=78	=78	=78
2.r	2.r	8d\L	8d/
.	.	8B\J	8g/L
.	.	4c\	8a/J
.	.	.	4g/
.	.	4A/	.
.	.	.	8f#/
=79	=79	=79	=79
2.G\	2d\	2.G/	2g/
.	4d\	.	4r
=80	=80	=80	=80
2.G\	2B\	2.r	2d/
.	4B\	.	4e/
=81	=81	=81	=81
2D\	2A/	2d\	4f#/
.	.	.	4.a/
4E\	4G/	[4B\	.
.	.	.	8g/
=82	=82	=82	=82
4G\	4r	4B\]	4g/
2A\	4r	2c#\	8f#/
.	.	.	8f#/L
.	4A/	.	8g/
.	.	.	8e/J
=83	=83	=83	=83
[2.G\	2B\	4e\	2.g/
.	.	8d\	.
.	.	4B\	.
.	4G/	.	.
.	.	[8d\	.
=84	=84	=84	=84
2.G\]	4G/	8d\L]	4r
.	.	8e\	.
.	2E/	16d\L	4r
.	.	16e\JJ	.
.	.	8d\L	.
.	.	8B\	4e/
.	.	8c#\J	.
=85	=85	=85	=85
[2.A\	[2.D/	[2.d\	4f#/
.	.	.	8f#/
.	.	.	[4.a/
=86	=86	=86	=86
2.A\]	2.D/]	2.d\]	8a/L]
.	.	.	8g/J
.	.	.	8f#/L
.	.	.	8d/J
.	.	.	8e/L
.	.	.	[8f#/J
=87	=87	=87	=87
2.r	4A/	2.r	8f#/L]
.	.	.	8a/
.	8E/L	.	8g/J
.	8G/J	.	4e/
.	4Fn/	.	.
.	.	.	8d/
=88	=88	=88	=88
2.B\	2E/	2B\	4e/
.	.	.	4r
.	4G/	4G/	4g/
=89	=89	=89	=89
2.A\	4D/	4F#/	4a/
.	4r	2D/	4f#/
.	4d\	.	8f#/L
.	.	.	8e/J
=90	=90	=90	=90
2.G\	2.d\	4r	2g/
.	.	4r	.
.	.	4d\	4r
=91	=91	=91	=91
2.r	2.r	2e\	2g/
.	.	4B\	4d/
=92	=92	=92	=92
2.r	2.r	4c\	4e/
.	.	8B/L	8g/
.	.	8A/J	4a/
.	.	8c\L	.
.	.	8B\J	8g/
=93	=93	=93	=93
2.r	2.r	8F#/L	8a/L
.	.	8G/J	8b/
.	.	4A/	8a/J
.	.	.	4a/
.	.	4B\	.
.	.	.	8g#/
=94	=94	=94	=94
2.A\	2D/	2.A/	2a/
.	4D/	.	4r
=95	=95	=95	=95
2.G\	2d\	2.r	2b\
.	4d\	.	4b\
=96	=96	=96	=96
2A\	2D/	2d\	4a/
.	.	.	4.f#/
4B\	4D/	[4B\	.
.	.	.	8e/
=97	=97	=97	=97
4G\	4r	4B\]	4e/
2F#\	4r	2A/	8f#/
.	.	.	8d/L
.	4A/	.	8e/
.	.	.	8c#/J
=98	=98	=98	=98
[2.E\	2G/	4c#\	2.e/
.	.	8d\	.
.	.	4e\	.
.	4B\	.	.
.	.	[8B\	.
=99	=99	=99	=99
2.E\]	4B\	8B\L]	4r
.	.	8d\	.
.	2G/	16c#\L	4r
.	.	16d\JJ	.
.	.	8e\L	.
.	.	8B\	4g/
.	.	8c#\J	.
=100	=100	=100	=100
[2.D\	[2.A/	[2.d\	4f#/
.	.	.	8f#/
.	.	.	[4.a/
=101	=101	=101	=101
2.D\]	2.A/]	2.d\]	8a/L]
.	.	.	8f#/J
.	.	.	8f#/L
.	.	.	8d/J
.	.	.	8f#/L
.	.	.	[8a/J
=102	=102	=102	=102
2.r	4d\	2.r	8a/L]
.	.	.	8b/
.	8B\L	.	8g/J
.	8c\J	.	4g/
.	4A/	.	.
.	.	.	8f#/
=103	=103	=103	=103
2.G\	2G/	2d\	4g/
.	.	.	4r
.	4G/	4B\	4e/
=104	=104	=104	=104
2.A\	4D/	4A/	8f#/
.	.	.	4.a/
.	4r	2c#\	.
.	4A/	.	8f#/L
.	.	.	8g#/J
=105	=105	=105	=105
2.D;\	2.A;/	2.d;\	2.a;/
==	==	==	==
*-	*-	*-	*-
!!!ENC: Craig Stuart Sapp
!!!END: 2004/12/09/
